X:17081
T: Cropie's Reel
C: Peter Milne
R: strathspey
B: RSCDS 17-8(I)
Z: 1997 by John Chambers <jc:trillian.mit.edu>
M: 4/4
L: 1/8
%--------------------
K: G
G \
|  "G"DGGE "D7"FGAF \
|  "G"GBdB  "C"e3f \
| "Em"gbeg  "G"dgBG \
| "A7"EAAG "D7"GFED \
|| "G"DGGE "D7"FGAF |
| "G"GBdB  "C"e3f \
| "Em"gbeg  "G"dgBG \
| "Am"EA"D7"FD "G"G3 d \
|[|"Em"efge "Am"agef \
| "A7"egfe  "D"d3B |
|  "C"cdec  "G"BcdB \
| "Am"EAAG "D7"GFED \
|| "G"DGGE "D7"FGAF \
| "Em"GBdB  "C"e3f \
| "Em"gbeg  "G"dgBG \
| "Am"EA"D7"FD "G"G3 |]
